X: 4
T:New Grand O.P. Dance,The. Car.04
M:2/4
Q:30
S:CarlisleMS,Anon.c1812.AGG's transcription
R:Country Dance
O:England
A:Carlisle
N:Doesn't work in PlayQabc!!
Z:vmp.Chris Partington
K:C
e|ce c((3c/d/e/)|((3f/g/f/) ((3e/d/c/) de|\
ce c((3c/d/e/)|((3d/e/d/) ((3c/B/A/) Ge|!
ce c((3c/d/e/)|((3f/g/f/) ((3e/d/c/) de|\
ce c((3c/d/e/)|dg ((3^f/g/a/) g2||!
{ag^f}g {ag^f}g {ag^f}g {ag^f}g |{ag^f}g ((3g/a/b/) c'g|\
{ag^f}g {ag^f}g {ag^f}g {ag^f}g |((3g/a/g/) ((3f/e/d/) cc|]
